src/images/plug.svg

<svg fill="none" height="3925" viewBox="0 0 2701 3925" width="2701" xmlns="http://www.w3.org/2000/svg" xmlns:xlink="http://www.w3.org/1999/xlink"><filter id="a" color-interpolation-filters="sRGB" filterUnits="userSpaceOnUse" height="583.521" width="1381.27" x="660.345" y="2339.41"><feFlood flood-opacity="0" result="BackgroundImageFix"/><feBlend in="SourceGraphic" in2="BackgroundImageFix" mode="normal" result="shape"/><feColorMatrix in="SourceAlpha" result="hardAlpha" type="matrix" values="0 0 0 0 0 0 0 0 0 0 0 0 0 0 0 0 0 0 127 0"/><feOffset/><feGaussianBlur stdDeviation="17.5"/><feComposite in2="hardAlpha" k2="-1" k3="1" operator="arithmetic"/><feColorMatrix type="matrix" values="0 0 0 0 0 0 0 0 0 0 0 0 0 0 0 0 0 0 0.64 0"/><feBlend in2="shape" mode="normal" result="effect1_innerShadow"/></filter><filter id="b" color-interpolation-filters="sRGB" filterUnits="userSpaceOnUse" height="925" width="1850" x="425" y="1272"><feFlood flood-opacity="0" result="BackgroundImageFix"/><feBlend in="SourceGraphic" in2="BackgroundImageFix" mode="normal" result="shape"/><feColorMatrix in="SourceAlpha" result="hardAlpha" type="matrix" values="0 0 0 0 0 0 0 0 0 0 0 0 0 0 0 0 0 0 127 0"/><feOffset/><feGaussianBlur stdDeviation="17.5"/><feComposite in2="hardAlpha" k2="-1" k3="1" operator="arithmetic"/><feColorMatrix type="matrix" values="0 0 0 0 0 0 0 0 0 0 0 0 0 0 0 0 0 0 0.64 0"/><feBlend in2="shape" mode="normal" result="effect1_innerShadow"/></filter><linearGradient id="c" gradientUnits="userSpaceOnUse" x1="1801.69" x2="2773.04" y1="1816.06" y2="843.718"><stop offset="0" stop-color="#46ff47"/><stop offset="1" stop-color="#9cff9d"/></linearGradient><linearGradient id="d" gradientUnits="userSpaceOnUse" x1="1566.99" x2="1896.78" y1="1795.81" y2="1223.9"><stop offset="0" stop-color="#10d9ed"/><stop offset="1" stop-color="#10d9ed" stop-opacity=".3"/></linearGradient><linearGradient id="e" gradientUnits="userSpaceOnUse" x1="1460.48" x2="1649.76" y1="2039.52" y2="1535.91"><stop offset="0" stop-color="#fa51d3"/><stop offset=".958774" stop-color="#fa51d3" stop-opacity="0"/></linearGradient><linearGradient id="f" gradientUnits="userSpaceOnUse" x1="1002.5" x2="1306.54" y1="2823" y2="2013.26"><stop offset="0" stop-color="#ffe700"/><stop offset="1" stop-color="#ffe700" stop-opacity="0"/></linearGradient><linearGradient id="g"><stop offset="0"/><stop offset="1" stop-opacity=".65"/></linearGradient><linearGradient id="h" gradientUnits="userSpaceOnUse" x1="1351.01" x2="1351.01" xlink:href="#g" y1="2337.16" y2="2922.93"/><linearGradient id="i"><stop offset=".75" stop-color="#fff"/><stop offset="1" stop-color="#dededf"/></linearGradient><linearGradient id="j" gradientUnits="userSpaceOnUse" x1="1540.35" x2="1540.35" xlink:href="#i" y1="2421.97" y2="2579.76"/><linearGradient id="k" gradientUnits="userSpaceOnUse" x1="1020.38" x2="1020.37" xlink:href="#i" y1="1469.78" y2="1993.67"/><linearGradient id="l" gradientUnits="userSpaceOnUse" x1="1677.62" x2="1677.63" xlink:href="#i" y1="1469.78" y2="1993.67"/><linearGradient id="m" gradientUnits="userSpaceOnUse" x1="1350" x2="1350" xlink:href="#g" y1="1272" y2="2197"/><path d="m0 1123.78c0-87.14 70.642-157.78 157.783-157.78h2384.497c87.15 0 157.79 70.64 157.79 157.78v785.96c0 745.6-604.43 1350.04-1350.04 1350.04-745.599 0-1350.03-604.44-1350.03-1350.04z" fill="url(#c)"/><g clip-rule="evenodd" fill-rule="evenodd"><path d="m2593.17 2437.3c-205.4 483.53-684.67 822.64-1243.14 822.64-745.599 0-1350.03-604.43-1350.03-1350.04v-567.74c256.416-141.58 551.223-222.16 864.85-222.16 825.32 0 1520.32 557.99 1728.32 1317.3z" fill="url(#d)"/><path d="m2270.38 2898.52c-241.14 224.78-564.68 362.32-920.35 362.32-745.599 0-1350.03-604.43-1350.03-1350.04v-144.32c228.495-142.89 498.568-225.48 787.931-225.48 777.859 0 1416.319 596.82 1482.449 1357.52z" fill="url(#e)"/><path d="m1804.3 3188.71c-28.08-623.15-540.3-1119.71-1168.078-1119.71-218.19 0-422.423 59.98-597.222 164.42 108.688 445.31 436.344 804.34 861.894 955.56v75.46c0 109.25 58.696 204.74 146.166 256.44v205.49c0 109.49 88.43 198.24 197.51 198.24h215.29c109.09 0 197.52-88.75 197.52-198.24v-205.49c87.47-51.7 146.16-147.19 146.16-256.44v-75.46c.26-.09.51-.18.76-.27z" fill="url(#f)"/></g><path d="m504 60c0-33.1371 26.863-60 60-60h274c33.137 0 60 26.8629 60 60v906h-394z" fill="#031514"/><path d="m1792 60c0-33.1371 26.86-60 60-60h274c33.14 0 60 26.8629 60 60v906h-394z" fill="#031514"/><g filter="url(#a)"><path d="m672.133 2339.6c-6.337-1.24-12.173 3.79-11.768 10.24 20.063 319.47 321.622 573.09 690.685 573.09 368.22 0 669.24-252.45 690.55-570.88.43-6.45-5.39-11.51-11.73-10.29-214.78 41.36-445.87 81.66-678.82 81.66-237.03 0-461.18-41.08-678.917-83.82z" fill="url(#h)"/></g><path d="m703.109 2390.42c11.882 100.37 304.311 222.87 652.381 222.87 347.28 0 634.29-122.81 647.36-222.87-203.17 13.01-219.91 77.72-647.36 77.72-449.235 0-446.084-64.28-652.381-77.72z" fill="url(#j)"/><path d="m1299 1734.95c-101.57 186.46-260.34 374.89-443.766 369.96-187.354 0-339.234-165.64-339.234-369.96s151.88-369.95 339.234-369.95c187.356 0 325.426 163.77 443.766 369.95z" fill="url(#k)"/><path d="m1399 1735.49c101.57 182.75 260.34 374.26 443.77 369.42 187.35 0 339.23-169.16 339.23-369.42s-150.89-370.49-338.25-370.49c-187.35 0-326.41 168.4-444.75 370.49z" fill="url(#l)"/><circle cx="987.542" cy="1797.18" fill="#031514" r="89.1743"/><circle cx="1018.7" cy="1836.94" fill="#fff" r="30.0829"/><circle cx="1711.37" cy="1797.18" fill="#031514" r="89.1743"/><circle cx="1742.53" cy="1836.94" fill="#fff" r="30.0829"/><path d="m1300.87 1738.58-782.898 40.42c-1.689-14.79-2.951-21.69-2.953-32.53-1.972-217.86 150.864-383.47 343.136-383.47 192.275 0 342.135 190.26 440.745 370.65-.83 1.52 2.81 3.41 1.97 4.93z" fill="#031514"/><path d="m1397.13 1738.58 783.7 40.42c1.69-14.79 1.95-21.69 1.95-32.53 6.93-213.92-150.83-383.47-343.05-383.47s-342.05 190.26-440.63 370.65c.83 1.52-2.81 3.41-1.97 4.93z" fill="#031514"/><g filter="url(#b)"><path d="m1838.17 1272c-238.68 0-412.41 238.33-488.17 365.52-75.76-127.19-249.49-365.52-488.169-365.52-240.904 0-436.831 207.49-436.831 462.5s195.927 462.5 436.831 462.5c238.649 0 412.409-238.33 488.169-365.55 75.76 127.22 249.49 365.55 488.17 365.55 240.9 0 436.83-207.49 436.83-462.5s-195.93-462.5-436.83-462.5zm-976.339 832.5c-189.856 0-344.331-165.98-344.331-370s154.475-370 344.331-370c225.559 0 394.479 290.83 436.309 370-41.83 79.17-210.72 370-436.309 370zm976.339 0c-225.56 0-394.48-290.83-436.31-370 41.83-79.17 210.75-370 436.31-370 189.86 0 344.33 165.98 344.33 370s-154.47 370-344.33 370z" fill="url(#m)"/></g></svg>

<svg width="2701" height="3925" viewBox="0 0 2701 3925" fill="none" xmlns="http://www.w3.org/2000/svg">
<path d="M0 1123.78C0 1036.64 70.642 966 157.783 966H2542.28C2629.43 966 2700.07 1036.64 2700.07 1123.78V1909.74C2700.07 2655.34 2095.64 3259.78 1350.03 3259.78C604.431 3259.78 0 2655.34 0 1909.74V1123.78Z" fill="url(#paint0_linear)"/>
<path fill-rule="evenodd" clip-rule="evenodd" d="M2593.17 2437.3C2387.77 2920.83 1908.5 3259.94 1350.03 3259.94C604.431 3259.94 0 2655.51 0 1909.9V1342.16C256.416 1200.58 551.223 1120 864.85 1120C1690.17 1120 2385.17 1677.99 2593.17 2437.3Z" fill="url(#paint1_linear)"/>
<path fill-rule="evenodd" clip-rule="evenodd" d="M2270.38 2898.52C2029.24 3123.3 1705.7 3260.84 1350.03 3260.84C604.431 3260.84 0 2656.41 0 1910.8V1766.48C228.495 1623.59 498.568 1541 787.931 1541C1565.79 1541 2204.25 2137.82 2270.38 2898.52Z" fill="url(#paint2_linear)"/>
<path fill-rule="evenodd" clip-rule="evenodd" d="M1804.3 3188.71C1776.22 2565.56 1264 2069 636.222 2069C418.032 2069 213.799 2128.98 39 2233.42C147.688 2678.73 475.344 3037.76 900.894 3188.98V3264.44C900.894 3373.69 959.59 3469.18 1047.06 3520.88V3726.37C1047.06 3835.86 1135.49 3924.61 1244.57 3924.61H1459.86C1568.95 3924.61 1657.38 3835.86 1657.38 3726.37V3520.88C1744.85 3469.18 1803.54 3373.69 1803.54 3264.44V3188.98C1803.8 3188.89 1804.05 3188.8 1804.3 3188.71Z" fill="url(#paint3_linear)"/>
<path d="M504 60C504 26.8629 530.863 0 564 0H838C871.137 0 898 26.8629 898 60V966H504V60Z" fill="#031514"/>
<path d="M1792 60C1792 26.8629 1818.86 0 1852 0H2126C2159.14 0 2186 26.8629 2186 60V966H1792V60Z" fill="#031514"/>
<g filter="url(#filter0_i)">
<path d="M672.133 2339.6C665.796 2338.36 659.96 2343.39 660.365 2349.84C680.428 2669.31 981.987 2922.93 1351.05 2922.93C1719.27 2922.93 2020.29 2670.48 2041.6 2352.05C2042.03 2345.6 2036.21 2340.54 2029.87 2341.76C1815.09 2383.12 1584 2423.42 1351.05 2423.42C1114.02 2423.42 889.87 2382.34 672.133 2339.6Z" fill="url(#paint4_linear)"/>
</g>
<path d="M703.109 2390.42C714.991 2490.79 1007.42 2613.29 1355.49 2613.29C1702.77 2613.29 1989.78 2490.48 2002.85 2390.42C1799.68 2403.43 1782.94 2468.14 1355.49 2468.14C906.255 2468.14 909.406 2403.86 703.109 2390.42Z" fill="url(#paint5_linear)"/>
<path d="M1299 1734.95C1197.43 1921.41 1038.66 2109.84 855.234 2104.91C667.88 2104.91 516 1939.27 516 1734.95C516 1530.63 667.88 1365 855.234 1365C1042.59 1365 1180.66 1528.77 1299 1734.95Z" fill="url(#paint6_linear)"/>
<path d="M1399 1735.49C1500.57 1918.24 1659.34 2109.75 1842.77 2104.91C2030.12 2104.91 2182 1935.75 2182 1735.49C2182 1535.23 2031.11 1365 1843.75 1365C1656.4 1365 1517.34 1533.4 1399 1735.49Z" fill="url(#paint7_linear)"/>
<circle cx="987.542" cy="1797.18" r="89.1743" fill="#031514"/>
<circle cx="1018.7" cy="1836.94" r="30.0829" fill="white"/>
<circle cx="1711.37" cy="1797.18" r="89.1743" fill="#031514"/>
<circle cx="1742.53" cy="1836.94" r="30.0829" fill="white"/>
<path d="M1300.87 1738.58L517.972 1779C516.283 1764.21 515.021 1757.31 515.019 1746.47C513.047 1528.61 665.883 1363 858.155 1363C1050.43 1363 1200.29 1553.26 1298.9 1733.65C1298.07 1735.17 1301.71 1737.06 1300.87 1738.58Z" fill="#031514"/>
<path d="M1397.13 1738.58L2180.83 1779C2182.52 1764.21 2182.78 1757.31 2182.78 1746.47C2189.71 1532.55 2031.95 1363 1839.73 1363C1647.51 1363 1497.68 1553.26 1399.1 1733.65C1399.93 1735.17 1396.29 1737.06 1397.13 1738.58Z" fill="#031514"/>
<g filter="url(#filter1_i)">
<path d="M1838.17 1272C1599.49 1272 1425.76 1510.33 1350 1637.52C1274.24 1510.33 1100.51 1272 861.831 1272C620.927 1272 425 1479.49 425 1734.5C425 1989.51 620.927 2197 861.831 2197C1100.48 2197 1274.24 1958.67 1350 1831.45C1425.76 1958.67 1599.49 2197 1838.17 2197C2079.07 2197 2275 1989.51 2275 1734.5C2275 1479.49 2079.07 1272 1838.17 1272ZM861.831 2104.5C671.975 2104.5 517.5 1938.52 517.5 1734.5C517.5 1530.48 671.975 1364.5 861.831 1364.5C1087.39 1364.5 1256.31 1655.33 1298.14 1734.5C1256.31 1813.67 1087.42 2104.5 861.831 2104.5ZM1838.17 2104.5C1612.61 2104.5 1443.69 1813.67 1401.86 1734.5C1443.69 1655.33 1612.61 1364.5 1838.17 1364.5C2028.03 1364.5 2182.5 1530.48 2182.5 1734.5C2182.5 1938.52 2028.03 2104.5 1838.17 2104.5Z" fill="url(#paint8_linear)"/>
</g>
<defs>
<filter id="filter0_i" x="660.345" y="2339.41" width="1381.27" height="583.521" filterUnits="userSpaceOnUse" color-interpolation-filters="sRGB">
<feFlood flood-opacity="0" result="BackgroundImageFix"/>
<feBlend mode="normal" in="SourceGraphic" in2="BackgroundImageFix" result="shape"/>
<feColorMatrix in="SourceAlpha" type="matrix" values="0 0 0 0 0 0 0 0 0 0 0 0 0 0 0 0 0 0 127 0" result="hardAlpha"/>
<feOffset/>
<feGaussianBlur stdDeviation="17.5"/>
<feComposite in2="hardAlpha" operator="arithmetic" k2="-1" k3="1"/>
<feColorMatrix type="matrix" values="0 0 0 0 0 0 0 0 0 0 0 0 0 0 0 0 0 0 0.64 0"/>
<feBlend mode="normal" in2="shape" result="effect1_innerShadow"/>
</filter>
<filter id="filter1_i" x="425" y="1272" width="1850" height="925" filterUnits="userSpaceOnUse" color-interpolation-filters="sRGB">
<feFlood flood-opacity="0" result="BackgroundImageFix"/>
<feBlend mode="normal" in="SourceGraphic" in2="BackgroundImageFix" result="shape"/>
<feColorMatrix in="SourceAlpha" type="matrix" values="0 0 0 0 0 0 0 0 0 0 0 0 0 0 0 0 0 0 127 0" result="hardAlpha"/>
<feOffset/>
<feGaussianBlur stdDeviation="17.5"/>
<feComposite in2="hardAlpha" operator="arithmetic" k2="-1" k3="1"/>
<feColorMatrix type="matrix" values="0 0 0 0 0 0 0 0 0 0 0 0 0 0 0 0 0 0 0.64 0"/>
<feBlend mode="normal" in2="shape" result="effect1_innerShadow"/>
</filter>
<linearGradient id="paint0_linear" x1="1801.69" y1="1816.06" x2="2773.04" y2="843.718" gradientUnits="userSpaceOnUse">
<stop stop-color="#46FF47"/>
<stop offset="1" stop-color="#9CFF9D"/>
</linearGradient>
<linearGradient id="paint1_linear" x1="1566.99" y1="1795.81" x2="1896.78" y2="1223.9" gradientUnits="userSpaceOnUse">
<stop stop-color="#10D9ED"/>
<stop offset="1" stop-color="#10D9ED" stop-opacity="0.3"/>
</linearGradient>
<linearGradient id="paint2_linear" x1="1460.48" y1="2039.52" x2="1649.76" y2="1535.91" gradientUnits="userSpaceOnUse">
<stop stop-color="#FA51D3"/>
<stop offset="0.958774" stop-color="#FA51D3" stop-opacity="0"/>
</linearGradient>
<linearGradient id="paint3_linear" x1="1002.5" y1="2823" x2="1306.54" y2="2013.26" gradientUnits="userSpaceOnUse">
<stop stop-color="#FFE700"/>
<stop offset="1" stop-color="#FFE700" stop-opacity="0"/>
</linearGradient>
<linearGradient id="paint4_linear" x1="1351.01" y1="2337.16" x2="1351.01" y2="2922.93" gradientUnits="userSpaceOnUse">
<stop/>
<stop offset="1" stop-opacity="0.65"/>
</linearGradient>
<linearGradient id="paint5_linear" x1="1540.35" y1="2421.97" x2="1540.35" y2="2579.76" gradientUnits="userSpaceOnUse">
<stop offset="0.75" stop-color="white"/>
<stop offset="1" stop-color="#DEDEDF"/>
</linearGradient>
<linearGradient id="paint6_linear" x1="1020.38" y1="1469.78" x2="1020.37" y2="1993.67" gradientUnits="userSpaceOnUse">
<stop offset="0.75" stop-color="white"/>
<stop offset="1" stop-color="#DEDEDF"/>
</linearGradient>
<linearGradient id="paint7_linear" x1="1677.62" y1="1469.78" x2="1677.63" y2="1993.67" gradientUnits="userSpaceOnUse">
<stop offset="0.75" stop-color="white"/>
<stop offset="1" stop-color="#DEDEDF"/>
</linearGradient>
<linearGradient id="paint8_linear" x1="1350" y1="1272" x2="1350" y2="2197" gradientUnits="userSpaceOnUse">
<stop/>
<stop offset="1" stop-opacity="0.65"/>
</linearGradient>
</defs>
</svg>
